X:55
T:Pollonesse 1832-55
O:Södermanland
R:Slängpolska
B:Notbok 1832 från Sörmlands museum
N:[[http://www.sormlandsmusikarkiv.se/noter/1832/1832.html]]
Z:Jonas Brunskog (via midi)
M: 3/4
M: 3/4
L: 1/16
K: D
|:A4 d4 e2f2 | e2d2 e2f2 g4 | g4 f2e2 d2f2 | f4 e2>c2 A4 |
A4 d2>e2 f4 | e2d2 e2f2 g4 | g4 f2e2 d2d2 | e2ce d8:|
|:d2A2 d2f2 f2a2 | a2g2 b2a2 a4 | f2d2 g2e2 c2e2 | e2d2 B2B2 A4 |
d2A2 d2f2 f2a2 | a2g2 b2a2 a4 | f2d2 g2e2 c2e2 | e2d2 d8 :|

